X:1
T: The Irishman's Return from America
C:
R:Reel
Q: 232
K:Am
M:4/4
L:1/8
|:ed|cd Bc A2 ed|cd Bc A2 cd|ef ed cd ef|ge dc d2 ed|
cd Bc Ac BA|GE DE G2 ed|c2 BA ^GA BG|A6:|
e^d|e2 a4 ga|b2 A4 e^f|g^f ga g2 fe|dc BA G2 e^d|
e2 a4 ga|b2 A4 ed|c2 BA ^GA BG|A6 e^d|
e2 a4 ga|b2 A4 e^f|^g^f ga g2 fe|dc BA G2 ed|
cc Bc Ac BA|GE DE G2 ed|c2 BA ^GA GG|A6||
